src/assets/svgs/call.svg

<svg width="32" height="32" viewBox="0 0 32 32" fill="none" xmlns="http://www.w3.org/2000/svg">
<path d="M25.88 17.3333C25.5867 17.3333 25.28 17.24 24.9867 17.1733C24.3931 17.0406 23.8095 16.8669 23.24 16.6533C22.6214 16.4283 21.9415 16.44 21.3311 16.6861C20.7206 16.9323 20.2228 17.3955 19.9333 17.9867L19.64 18.6C18.3451 17.8656 17.1488 16.9695 16.08 15.9333C15.0438 14.8645 14.1477 13.6682 13.4133 12.3733L14.0267 12.0933C14.6178 11.8039 15.081 11.306 15.3272 10.6956C15.5733 10.0851 15.585 9.40521 15.36 8.78666C15.1482 8.21203 14.9745 7.62409 14.84 7.02666C14.7733 6.73332 14.72 6.42666 14.68 6.13332C14.5181 5.19415 14.0262 4.34365 13.2928 3.73498C12.5595 3.12631 11.6329 2.79947 10.68 2.81332H6.66665C6.10298 2.81258 5.54552 2.93099 5.03081 3.16077C4.5161 3.39055 4.05577 3.72652 3.67999 4.14666C3.29641 4.57819 3.01081 5.08766 2.84279 5.64004C2.67477 6.19242 2.62833 6.77463 2.70665 7.34666C3.43143 12.8962 5.96693 18.0515 9.91999 22.0133C13.8818 25.9664 19.0371 28.5019 24.5867 29.2267C24.7597 29.2399 24.9336 29.2399 25.1067 29.2267C26.0899 29.2281 27.0392 28.8674 27.7733 28.2133C28.1935 27.8375 28.5294 27.3772 28.7592 26.8625C28.989 26.3478 29.1074 25.7903 29.1067 25.2267V21.2267C29.0995 20.3054 28.7745 19.4148 28.1866 18.7055C27.5987 17.9961 26.7839 17.5114 25.88 17.3333ZM26.5333 25.3333C26.5329 25.5194 26.4935 25.7033 26.4177 25.8732C26.3419 26.0431 26.2314 26.1953 26.0933 26.32C25.9472 26.4531 25.7733 26.5521 25.5842 26.6098C25.3951 26.6674 25.1955 26.6823 25 26.6533C20.0244 26.0035 15.4003 23.736 11.84 20.2C8.27661 16.6366 5.98936 11.9965 5.33332 6.99999C5.30435 6.80444 5.31923 6.60489 5.37688 6.41579C5.43454 6.2267 5.53351 6.05279 5.66665 5.90666C5.79281 5.76686 5.94716 5.65537 6.11952 5.57953C6.29188 5.50369 6.47835 5.46522 6.66665 5.46666H10.6667C10.9749 5.45912 11.2762 5.55864 11.5193 5.74826C11.7624 5.93787 11.9322 6.20588 12 6.50666C12 6.86666 12.12 7.23999 12.2 7.59999C12.3541 8.29847 12.5591 8.98475 12.8133 9.65332L10.9467 10.5333C10.6258 10.6806 10.3765 10.9491 10.2533 11.28C10.12 11.6046 10.12 11.9687 10.2533 12.2933C12.1723 16.4037 15.4763 19.7077 19.5867 21.6267C19.9113 21.76 20.2754 21.76 20.6 21.6267C20.9308 21.5035 21.1994 21.2542 21.3467 20.9333L22.1867 19.0667C22.8745 19.3175 23.5783 19.5224 24.2933 19.68C24.64 19.76 25.0133 19.8267 25.3733 19.88C25.6741 19.9477 25.9421 20.1176 26.1317 20.3607C26.3213 20.6038 26.4209 20.9051 26.4133 21.2133L26.5333 25.3333ZM18.6667 2.66666C18.36 2.66666 18.04 2.66666 17.7333 2.66666C17.3797 2.69671 17.0525 2.86602 16.8237 3.13732C16.5949 3.40862 16.4833 3.7597 16.5133 4.11332C16.5434 4.46695 16.7127 4.79414 16.984 5.02294C17.2553 5.25173 17.6064 5.36338 17.96 5.33332H18.6667C20.7884 5.33332 22.8232 6.17618 24.3235 7.67647C25.8238 9.17676 26.6667 11.2116 26.6667 13.3333C26.6667 13.5733 26.6667 13.8 26.6667 14.04C26.6371 14.3917 26.7482 14.7409 26.9757 15.0108C27.2031 15.2807 27.5283 15.4495 27.88 15.48H27.9867C28.3204 15.4813 28.6426 15.3575 28.8895 15.1328C29.1363 14.9082 29.2899 14.5991 29.32 14.2667C29.32 13.96 29.32 13.64 29.32 13.3333C29.32 10.5067 28.198 7.79557 26.2005 5.79556C24.203 3.79556 21.4933 2.67019 18.6667 2.66666V2.66666ZM21.3333 13.3333C21.3333 13.6869 21.4738 14.0261 21.7238 14.2761C21.9739 14.5262 22.313 14.6667 22.6667 14.6667C23.0203 14.6667 23.3594 14.5262 23.6095 14.2761C23.8595 14.0261 24 13.6869 24 13.3333C24 11.9188 23.4381 10.5623 22.4379 9.56209C21.4377 8.56189 20.0811 7.99999 18.6667 7.99999C18.313 7.99999 17.9739 8.14047 17.7238 8.39051C17.4738 8.64056 17.3333 8.9797 17.3333 9.33332C17.3333 9.68695 17.4738 10.0261 17.7238 10.2761C17.9739 10.5262 18.313 10.6667 18.6667 10.6667C19.3739 10.6667 20.0522 10.9476 20.5523 11.4477C21.0524 11.9478 21.3333 12.6261 21.3333 13.3333Z" fill="#B69D75"/>
</svg>

<svg width="32" height="32" fill="none" xmlns="http://www.w3.org/2000/svg"><path d="M25.88 17.333c-.293 0-.6-.093-.893-.16a13.131 13.131 0 0 1-1.747-.52 2.667 2.667 0 0 0-3.307 1.334l-.293.613a17.56 17.56 0 0 1-3.56-2.667 17.56 17.56 0 0 1-2.667-3.56l.614-.28a2.667 2.667 0 0 0 1.333-3.306 13.945 13.945 0 0 1-.52-1.76c-.067-.294-.12-.6-.16-.894a4 4 0 0 0-4-3.32H6.667A4 4 0 0 0 3.68 4.147a4 4 0 0 0-.973 3.2A25.426 25.426 0 0 0 9.92 22.013a25.426 25.426 0 0 0 14.667 7.214c.173.013.347.013.52 0a4 4 0 0 0 2.666-1.014 4 4 0 0 0 1.334-2.986v-4a4 4 0 0 0-3.227-3.894Zm.653 8a1.332 1.332 0 0 1-.44.987 1.334 1.334 0 0 1-1.093.333A22.88 22.88 0 0 1 11.84 20.2 22.88 22.88 0 0 1 5.333 7a1.333 1.333 0 0 1 .334-1.093 1.333 1.333 0 0 1 1-.44h4A1.333 1.333 0 0 1 12 6.507c0 .36.12.733.2 1.093.154.698.36 1.385.613 2.053l-1.866.88c-.321.148-.57.416-.694.747a1.334 1.334 0 0 0 0 1.013 19.32 19.32 0 0 0 9.334 9.334c.324.133.688.133 1.013 0 .33-.123.6-.373.747-.694l.84-1.866a16.546 16.546 0 0 0 3.186.813 1.333 1.333 0 0 1 1.04 1.333l.12 4.12ZM18.667 2.667h-.934a1.338 1.338 0 1 0 .227 2.666h.707a8 8 0 0 1 8 8v.707a1.333 1.333 0 0 0 1.213 1.44h.107a1.334 1.334 0 0 0 1.333-1.213v-.934A10.667 10.667 0 0 0 18.667 2.667Zm2.666 10.666a1.333 1.333 0 0 0 2.667 0A5.333 5.333 0 0 0 18.667 8a1.334 1.334 0 1 0 0 2.667 2.667 2.667 0 0 1 2.666 2.666Z" fill="#B69D75"/></svg>
